usr/share/icons/biglinux-icons-material/scalable/mimetypes/application-vnd.oasis.opendocument.text-template.svg

<svg width="24" height="24" viewBox="0 0 24 24" fill="none" xmlns="http://www.w3.org/2000/svg">
<rect x="1" y="1" width="22" height="22" rx="6.6" fill="url(#paint0_radial_3_1385)"/>
<path d="M5 17.0002V16.0002H15V17.0002H5ZM5 14.0001V13.0001H19V14.0001H5ZM5 11V10H19V11H5ZM5 8V7H19V8H5Z" fill="white"/>
<defs>
<radialGradient id="paint0_radial_3_1385" cx="0" cy="0" r="1" gradientUnits="userSpaceOnUse" gradientTransform="translate(17.5 1) rotate(116.565) scale(24.5967)">
<stop stop-color="#6D91A3"/>
<stop offset="1" stop-color="#1C4E66"/>
</radialGradient>
</defs>
</svg>

<svg xmlns="http://www.w3.org/2000/svg" width="24" height="24" fill="none"><rect width="22" height="22" x="1" y="1" fill="url(#a)" rx="6.6"/><path fill="#fff" d="M5 17v-1h10v1H5Zm0-3v-1h14v1H5Zm0-3v-1h14v1H5Zm0-3V7h14v1H5Z"/><defs><radialGradient id="a" cx="0" cy="0" r="1" gradientTransform="rotate(116.565 8.441 5.908) scale(24.5967)" gradientUnits="userSpaceOnUse"><stop stop-color="#6D91A3"/><stop offset="1" stop-color="#1C4E66"/></radialGradient></defs></svg>
